svg/N_Arrows/50.svg

<svg xmlns="http://www.w3.org/2000/svg" viewBox="0 0 744.09 1052.36" xmlns:xlink="http://www.w3.org/1999/xlink"><defs><path id="0" d="m394.7 548.46l4.956-.442.044-5.966-5 6.408z" stroke="#000" stroke-width=".14" fill-rule="evenodd" fill="none"/><path id="1" d="m321.43 270.93h68.57v74.28h-68.57z"/></defs><g transform="matrix(3.44109 0 0 3.23298-957.23-1215.08)"><g stroke="#000"><g transform="matrix(.35534 0 0 .34863 244.4 348.47)"><path transform="translate(-39.25 7.03)" d="M352.14284 523.52289A7.589286 7.589286 0 1 1 336.96427 523.52289 7.589286 7.589286 0 1 1 352.14284 523.52289z" opacity=".97" fill="#fff" stroke-width="1.7"/><g fill="none"><path transform="matrix(.69567 0 0 .64209 65.42 192.16)" d="M363.0357 527.27289A17.857143 19.375 0 1 1 327.32141 527.27289 17.857143 19.375 0 1 1 363.0357 527.27289z" opacity=".97" stroke-width="9.304"/><path d="M336.5 531.73718A30.875 30.875 0 1 1 274.75 531.73718 30.875 30.875 0 1 1 336.5 531.73718z" opacity=".97" stroke-width="8.442"/></g></g><g fill="none"><path d="M374.75 534.61218A21.25 21.25 0 1 1 332.25 534.61218 21.25 21.25 0 1 1 374.75 534.61218z" opacity=".97" stroke-width="8.442"/><path d="M387.125 534.36218A34.3125 33.25 0 1 1 318.5 534.36218 34.3125 33.25 0 1 1 387.125 534.36218z" opacity=".97" stroke-width="1.1"/><g fill-rule="evenodd"><path d="m378.53 537.36h8.07" stroke-width="1.029"/><path d="m328.48 537.36h-9.463" stroke-width="1.018"/><path d="m354.12 509.7v-8.933" stroke-width="1.033"/><path d="m354 560.11l.125 7.25"/><path d="m371.22 517.21l6.182-5.38" stroke-width="1.114"/><path d="m328.02 511.51l6.348 6.811" stroke-width="1.042"/><path d="m369.01 554.29l5.959 5.03" stroke-width="1.071"/><path d="m335.28 551.99l-6.548 5.423" stroke-width="1.077"/></g></g></g><g transform="translate(-45.776-47.23)"><use xlink:href="#0"/><path d="m404.8 548.47l-5.04-.442.044-5.966 5 6.408z" fill-rule="evenodd" stroke="#000" stroke-width=".14"/></g><g transform="matrix(0 1-1 0 935.28 137.49)"><use xlink:href="#0"/><path d="m404.8 548.72l-5.04-.692.044-5.966 5 6.658z" fill-rule="evenodd" stroke="#000" stroke-width=".14"/></g><g transform="matrix(-1 0 0-1 753.66 1115.9)"><use xlink:href="#0"/><path d="m404.8 548.47l-5.04-.442.044-5.966 5 6.408z" fill-rule="evenodd" stroke="#000" stroke-width=".14" id="2"/></g><g transform="matrix(0-1 1 0-229.8 936.82)"><path d="m394.95 548.65l4.706-.629.044-5.966-4.75 6.595z" fill="none" fill-rule="evenodd" stroke="#000" stroke-width=".14"/><use xlink:href="#2"/></g></g><g font-family="Arial Black" font-size="56"><flowRoot transform="translate(79.84 224.28)"><flowRegion><use xlink:href="#1"/></flowRegion><flowPara>E</flowPara></flowRoot><flowRoot transform="translate(-83.957 65.863)"><flowRegion><use xlink:href="#1"/></flowRegion><flowPara>N</flowPara></flowRoot><flowRoot transform="translate(-80.19 368.49)"><flowRegion><use xlink:href="#1"/></flowRegion><flowPara>S</flowPara></flowRoot><flowRoot transform="translate(-260.63 222.2)"><flowRegion><use xlink:href="#1"/></flowRegion><flowPara>W</flowPara></flowRoot></g></svg>

<?xml version="1.0" encoding="UTF-8" standalone="no"?>
<!-- Created with Inkscape (http://www.inkscape.org/) -->
<svg
   xmlns:dc="http://purl.org/dc/elements/1.1/"
   xmlns:cc="http://web.resource.org/cc/"
   xmlns:rdf="http://www.w3.org/1999/02/22-rdf-syntax-ns#"
   xmlns:svg="http://www.w3.org/2000/svg"
   xmlns="http://www.w3.org/2000/svg"
   xmlns:sodipodi="http://sodipodi.sourceforge.net/DTD/sodipodi-0.dtd"
   xmlns:inkscape="http://www.inkscape.org/namespaces/inkscape"
   width="744.09448819"
   height="1052.3622047"
   id="svg2"
   sodipodi:version="0.32"
   inkscape:version="0.44.1"
   sodipodi:docbase="F:\Qgis N_arrows\TOT"
   sodipodi:docname="30T.svg"
   inkscape:export-filename="F:\Qgis N_arrows\TOT\30T.png"
   inkscape:export-xdpi="300"
   inkscape:export-ydpi="300">
  <defs
     id="defs4" />
  <sodipodi:namedview
     id="base"
     pagecolor="#ffffff"
     bordercolor="#666666"
     borderopacity="1.0"
     inkscape:pageopacity="0.0"
     inkscape:pageshadow="2"
     inkscape:zoom="0.70710678"
     inkscape:cx="333.18473"
     inkscape:cy="518.24741"
     inkscape:document-units="px"
     inkscape:current-layer="layer1"
     showgrid="true"
     inkscape:window-width="1280"
     inkscape:window-height="744"
     inkscape:window-x="-4"
     inkscape:window-y="-4" />
  <metadata
     id="metadata7">
    <rdf:RDF>
      <cc:Work
         rdf:about="">
        <dc:format>image/svg+xml</dc:format>
        <dc:type
           rdf:resource="http://purl.org/dc/dcmitype/StillImage" />
      </cc:Work>
    </rdf:RDF>
  </metadata>
  <g
     inkscape:label="Livello 1"
     inkscape:groupmode="layer"
     id="layer1">
    <g
       id="g6681">
      <g
         transform="matrix(3.441086,0,0,3.232982,-957.2253,-1215.08)"
         id="g6568">
        <g
           id="g3649"
           transform="matrix(0.35534,0,0,0.348629,244.3993,348.4684)">
          <path
             transform="translate(-39.25,7.02858)"
             d="M 352.14284 523.52289 A 7.5892859 7.5892859 0 1 1  336.96427,523.52289 A 7.5892859 7.5892859 0 1 1  352.14284 523.52289 z"
             sodipodi:ry="7.5892859"
             sodipodi:rx="7.5892859"
             sodipodi:cy="523.52289"
             sodipodi:cx="344.55356"
             id="path1872"
             style="opacity:0.97000002;fill:white;fill-opacity:1;stroke:black;stroke-width:1.70000005;stroke-miterlimit:4;stroke-dasharray:none;stroke-opacity:1"
             sodipodi:type="arc" />
          <path
             transform="matrix(0.695668,0,0,0.642091,65.42376,192.1552)"
             d="M 363.0357 527.27289 A 17.857143 19.375 0 1 1  327.32141,527.27289 A 17.857143 19.375 0 1 1  363.0357 527.27289 z"
             sodipodi:ry="19.375"
             sodipodi:rx="17.857143"
             sodipodi:cy="527.27289"
             sodipodi:cx="345.17856"
             id="path2760"
             style="opacity:0.97000002;fill:none;fill-opacity:1;stroke:black;stroke-width:9.30445576;stroke-miterlimit:4;stroke-dasharray:none;stroke-opacity:1"
             sodipodi:type="arc" />
          <path
             d="M 336.5 531.73718 A 30.875 30.875 0 1 1  274.75,531.73718 A 30.875 30.875 0 1 1  336.5 531.73718 z"
             sodipodi:ry="30.875"
             sodipodi:rx="30.875"
             sodipodi:cy="531.73718"
             sodipodi:cx="305.625"
             id="path3647"
             style="opacity:0.97000002;fill:none;fill-opacity:1;stroke:black;stroke-width:8.44200039;stroke-miterlimit:4;stroke-dasharray:none;stroke-opacity:1"
             sodipodi:type="arc" />
        </g>
        <path
           sodipodi:type="arc"
           style="opacity:0.97000002;fill:none;fill-opacity:1;stroke:black;stroke-width:8.44200039;stroke-miterlimit:4;stroke-dasharray:none;stroke-opacity:1"
           id="path3654"
           sodipodi:cx="353.5"
           sodipodi:cy="534.61218"
           sodipodi:rx="21.25"
           sodipodi:ry="21.25"
           d="M 374.75 534.61218 A 21.25 21.25 0 1 1  332.25,534.61218 A 21.25 21.25 0 1 1  374.75 534.61218 z" />
        <path
           sodipodi:type="arc"
           style="opacity:0.97000002;fill:none;fill-opacity:1;stroke:black;stroke-width:1.10000002;stroke-miterlimit:4;stroke-dasharray:none;stroke-opacity:1"
           id="path4543"
           sodipodi:cx="352.8125"
           sodipodi:cy="534.36218"
           sodipodi:rx="34.3125"
           sodipodi:ry="33.25"
           d="M 387.125 534.36218 A 34.3125 33.25 0 1 1  318.5,534.36218 A 34.3125 33.25 0 1 1  387.125 534.36218 z" />
        <path
           style="fill:none;fill-rule:evenodd;stroke:black;stroke-width:1.02857721px;stroke-linecap:butt;stroke-linejoin:miter;stroke-opacity:1"
           d="M 378.52899,537.36218 L 386.59601,537.36218"
           id="path4545" />
        <path
           style="fill:none;fill-rule:evenodd;stroke:black;stroke-width:1.01835012px;stroke-linecap:butt;stroke-linejoin:miter;stroke-opacity:1"
           d="M 328.48148,537.36218 L 319.01852,537.36218"
           id="path4547" />
        <path
           style="fill:none;fill-rule:evenodd;stroke:black;stroke-width:1.03279555px;stroke-linecap:butt;stroke-linejoin:miter;stroke-opacity:1"
           d="M 354.125,509.70385 L 354.125,500.77051"
           id="path4549" />
        <path
           style="fill:none;fill-rule:evenodd;stroke:black;stroke-width:1px;stroke-linecap:butt;stroke-linejoin:miter;stroke-opacity:1"
           d="M 354,560.11218 L 354.125,567.36218"
           id="path4551" />
        <path
           style="fill:none;fill-rule:evenodd;stroke:black;stroke-width:1.1137265px;stroke-linecap:butt;stroke-linejoin:miter;stroke-opacity:1"
           d="M 371.22476,517.21065 L 377.40653,511.83065"
           id="path4553" />
        <path
           style="fill:none;fill-rule:evenodd;stroke:black;stroke-width:1.04214442px;stroke-linecap:butt;stroke-linejoin:miter;stroke-opacity:1"
           d="M 328.02107,511.50825 L 334.36909,518.31966"
           id="path4559" />
        <path
           style="fill:none;fill-rule:evenodd;stroke:black;stroke-width:1.07136142px;stroke-linecap:butt;stroke-linejoin:miter;stroke-opacity:1"
           d="M 369.00535,554.29431 L 374.96432,559.3265"
           id="path4561" />
        <path
           style="fill:none;fill-rule:evenodd;stroke:black;stroke-width:1.07683265px;stroke-linecap:butt;stroke-linejoin:miter;stroke-opacity:1"
           d="M 335.2848,551.98899 L 328.73664,557.41215"
           id="path4565" />
        <g
           id="g6353"
           transform="translate(-45.77614,-47.23058)">
          <path
             id="path4567"
             d="M 394.7,548.46236 L 399.65581,548.02042 L 399.7,542.05438 L 394.7,548.46236 z "
             style="fill:none;fill-rule:evenodd;stroke:black;stroke-width:0.14;stroke-linecap:butt;stroke-linejoin:miter;stroke-miterlimit:4;stroke-dasharray:none;stroke-opacity:1"
             sodipodi:nodetypes="cccc" />
          <path
             id="path5454"
             d="M 404.80486,548.46894 L 399.76067,548.027 L 399.80486,542.06096 L 404.80486,548.46894 z "
             style="fill:black;fill-opacity:1;fill-rule:evenodd;stroke:black;stroke-width:0.14;stroke-linecap:butt;stroke-linejoin:miter;stroke-miterlimit:4;stroke-dasharray:none;stroke-opacity:1"
             sodipodi:nodetypes="cccc" />
        </g>
        <g
           id="g6357"
           transform="matrix(0,1,-1,0,935.2752,137.4873)">
          <path
             id="path6359"
             d="M 394.7,548.46236 L 399.65581,548.02042 L 399.7,542.05438 L 394.7,548.46236 z "
             style="fill:none;fill-rule:evenodd;stroke:black;stroke-width:0.14;stroke-linecap:butt;stroke-linejoin:miter;stroke-miterlimit:4;stroke-dasharray:none;stroke-opacity:1"
             sodipodi:nodetypes="cccc" />
          <path
             id="path6361"
             d="M 404.80486,548.71894 L 399.76067,548.027 L 399.80486,542.06096 L 404.80486,548.71894 z "
             style="fill:black;fill-opacity:1;fill-rule:evenodd;stroke:black;stroke-width:0.14;stroke-linecap:butt;stroke-linejoin:miter;stroke-miterlimit:4;stroke-dasharray:none;stroke-opacity:1"
             sodipodi:nodetypes="cccc" />
        </g>
        <g
           id="g6363"
           transform="matrix(-1,0,0,-1,753.6594,1115.901)">
          <path
             id="path6365"
             d="M 394.7,548.46236 L 399.65581,548.02042 L 399.7,542.05438 L 394.7,548.46236 z "
             style="fill:none;fill-rule:evenodd;stroke:black;stroke-width:0.14;stroke-linecap:butt;stroke-linejoin:miter;stroke-miterlimit:4;stroke-dasharray:none;stroke-opacity:1"
             sodipodi:nodetypes="cccc" />
          <path
             id="path6367"
             d="M 404.80486,548.46894 L 399.76067,548.027 L 399.80486,542.06096 L 404.80486,548.46894 z "
             style="fill:black;fill-opacity:1;fill-rule:evenodd;stroke:black;stroke-width:0.14;stroke-linecap:butt;stroke-linejoin:miter;stroke-miterlimit:4;stroke-dasharray:none;stroke-opacity:1"
             sodipodi:nodetypes="cccc" />
        </g>
        <g
           id="g6369"
           transform="matrix(0,-1,1,0,-229.8036,936.8154)">
          <path
             id="path6371"
             d="M 394.95,548.64986 L 399.65581,548.02042 L 399.7,542.05438 L 394.95,548.64986 z "
             style="fill:none;fill-rule:evenodd;stroke:black;stroke-width:0.14;stroke-linecap:butt;stroke-linejoin:miter;stroke-miterlimit:4;stroke-dasharray:none;stroke-opacity:1"
             sodipodi:nodetypes="cccc" />
          <path
             id="path6373"
             d="M 404.80486,548.46894 L 399.76067,548.027 L 399.80486,542.06096 L 404.80486,548.46894 z "
             style="fill:black;fill-opacity:1;fill-rule:evenodd;stroke:black;stroke-width:0.14;stroke-linecap:butt;stroke-linejoin:miter;stroke-miterlimit:4;stroke-dasharray:none;stroke-opacity:1"
             sodipodi:nodetypes="cccc" />
        </g>
      </g>
      <flowRoot
         inkscape:export-ydpi="300"
         inkscape:export-xdpi="300"
         inkscape:export-filename="F:\Qgis N_arrows\TOT\25T.png"
         transform="translate(79.83724,224.2814)"
         style="font-size:56px;font-family:Arial Black"
         id="flowRoot2798"
         xml:space="preserve"><flowRegion
           id="flowRegion2800"><rect
             style="font-size:56px;font-family:Arial Black"
             y="270.93362"
             x="321.42856"
             height="74.285713"
             width="68.571426"
             id="rect2802" /></flowRegion><flowPara
           id="flowPara2804">E</flowPara></flowRoot>      <flowRoot
         inkscape:export-ydpi="300"
         inkscape:export-xdpi="300"
         inkscape:export-filename="F:\Qgis N_arrows\TOT\25T.png"
         transform="translate(-83.95703,65.86333)"
         style="font-size:56px;font-family:Arial Black"
         id="flowRoot2790"
         xml:space="preserve"><flowRegion
           id="flowRegion2792"><rect
             style="font-size:56px;font-family:Arial Black"
             y="270.93362"
             x="321.42856"
             height="74.285713"
             width="68.571426"
             id="rect2794" /></flowRegion><flowPara
           id="flowPara2796">N</flowPara></flowRoot>      <flowRoot
         inkscape:export-ydpi="300"
         inkscape:export-xdpi="300"
         inkscape:export-filename="F:\Qgis N_arrows\TOT\25T.png"
         transform="translate(-80.19434,368.4911)"
         style="font-size:56px;font-family:Arial Black"
         id="flowRoot1980"
         xml:space="preserve"><flowRegion
           id="flowRegion1982"><rect
             style="font-size:56px;font-family:Arial Black"
             y="270.93362"
             x="321.42856"
             height="74.285713"
             width="68.571426"
             id="rect1984" /></flowRegion><flowPara
           id="flowPara1986">S</flowPara></flowRoot>      <flowRoot
         inkscape:export-ydpi="300"
         inkscape:export-xdpi="300"
         inkscape:export-filename="F:\Qgis N_arrows\TOT\25T.png"
         transform="translate(-260.6315,222.198)"
         style="font-size:56px;font-family:Arial Black"
         id="flowRoot1988"
         xml:space="preserve"><flowRegion
           id="flowRegion1990"><rect
             style="font-size:56px;font-family:Arial Black"
             y="270.93362"
             x="321.42856"
             height="74.285713"
             width="68.571426"
             id="rect1992" /></flowRegion><flowPara
           id="flowPara1994">W</flowPara></flowRoot>    </g>
  </g>
</svg>
